X: 70
T: The Boys Of The Town
M: 6/8
L: 1/8
R: jig
K:Gmaj
|:d|"G"ged B2A|"Em"BGE G2A|"G"BdB "D"ABA|"G"GBd "C"e2f|
"G"ged B2A|"Em"BGE G2A|"G"BdB "D"AGA|"G"BGF G2:|
|:B|"D"def "G"gfg|"Am"eaa eaa|"G"bag "C"e2d|egg egg|
"D"def "G"gfg|"D"afd "C"efg|"Em"edB "D"AGA|"G"BGF G2:||


